svg/fluentui-system-icons/ic_fluent_text_color_20_filled.svg

<svg width="20" height="20" viewBox="0 0 20 20" fill="none" xmlns="http://www.w3.org/2000/svg">
<path d="M10.4642 2.3143C10.3883 2.12448 10.2045 2 10 2C9.79556 2 9.6117 2.12448 9.53577 2.3143L6.53577 9.8143C6.43322 10.0707 6.55792 10.3617 6.81432 10.4642C7.07071 10.5668 7.36169 10.4421 7.46425 10.1857L8.53707 7.50364H11.4629L12.5358 10.1857C12.6383 10.4421 12.9293 10.5668 13.1857 10.4642C13.4421 10.3617 13.5668 10.0707 13.4642 9.8143L10.4642 2.3143ZM10 3.84629L11.0629 6.50364H8.93707L10 3.84629ZM4.5 12C3.67157 12 3 12.6716 3 13.5V16.5C3 17.3284 3.67157 18 4.5 18H15.5C16.3284 18 17 17.3284 17 16.5V13.5C17 12.6716 16.3284 12 15.5 12H4.5Z" fill="#212121"/>
</svg>

<svg xmlns="http://www.w3.org/2000/svg" width="20" height="20"><path d="M10.464 2.314a.5.5 0 0 0-.928 0l-3 7.5a.5.5 0 1 0 .928.372l1.073-2.682h2.926l1.073 2.682a.5.5 0 1 0 .928-.372l-3-7.5ZM10 3.846l1.063 2.658H8.937L10 3.846ZM4.5 12A1.5 1.5 0 0 0 3 13.5v3A1.5 1.5 0 0 0 4.5 18h11a1.5 1.5 0 0 0 1.5-1.5v-3a1.5 1.5 0 0 0-1.5-1.5h-11Z"/></svg>
